X: 1
T: Campdown Races
M: 2/4
L: 1/8
R: polka
K: Gmaj
|:ed Bd|ed B2|BA AG/2A/2|BA AB/2d/2|
ed Bd|ed BG|AG/2A/2 BA|G2 G2:|
|:Bd ef|g2 g2|fe fe|d2 dB/2d/2|
ed Bd|ed BG|AG/2A/2 BA|G2 G2:|
